svgs/roku.svg

<svg width="24" height="24" viewBox="0 0 24 24" fill="none" xmlns="http://www.w3.org/2000/svg"><path d="M5.15 11.042a1.02 1.02 0 0 0-1.016-1.026H3.63v2.043h.504a1.02 1.02 0 0 0 1.016-1.017Zm2.292 4.072h-1.85l-1.468-2.038H3.63v2.033H2V9h2.335c1.346 0 2.445.915 2.445 2.042 0 .687-.421 1.3-1.062 1.676l1.724 2.396Z" fill="#000"/><path d="M9.28 11.408c-.43 0-.797.585-.797 1.31 0 .725.366 1.31.797 1.31.44 0 .806-.586.806-1.31 0-.724-.366-1.31-.806-1.31Zm2.51 1.31a2.497 2.497 0 0 1-2.51 2.491 2.49 2.49 0 0 1-2.5-2.491 2.49 2.49 0 0 1 2.5-2.492 2.497 2.497 0 0 1 2.51 2.492Zm3.824-2.39-1.878 1.877v-1.884h-1.63v4.788h1.63v-1.943l1.96 1.943h2.052l-2.491-2.492 2.063-2.062v2.84c0 .944.567 1.814 1.996 1.814.678 0 1.3-.384 1.603-.732l.733.632H22v-4.781h-1.63v3.096c-.183.32-.439.521-.834.521-.401 0-.585-.237-.585-.998v-2.619h-3.337Z" fill="#000"/></svg>

<svg id="vector" xmlns="http://www.w3.org/2000/svg" width="24" height="24" viewBox="0 0 24 24"><path fill="#000000" d="M5.15,11.042C5.15,10.473 4.693,10.016 4.134,10.016H3.63V12.059H4.134C4.693,12.059 5.15,11.601 5.15,11.042ZM7.442,15.114H5.592L4.124,13.076H3.63V15.109H2V9H4.335C5.681,9 6.78,9.915 6.78,11.042C6.78,11.729 6.359,12.342 5.718,12.718L7.442,15.114Z" id="path_0"/><path fill="#000000" d="M9.28,11.408C8.849,11.408 8.483,11.993 8.483,12.718C8.483,13.443 8.849,14.028 9.28,14.028C9.72,14.028 10.086,13.442 10.086,12.718C10.086,11.994 9.72,11.408 9.28,11.408ZM11.789,12.718C11.789,14.101 10.664,15.209 9.28,15.209C7.896,15.209 6.779,14.101 6.779,12.718C6.779,11.335 7.896,10.226 9.28,10.226C10.664,10.226 11.789,11.335 11.789,12.718Z" id="path_1"/><path fill="#000000" d="M15.614,10.328L13.736,12.205V10.321H12.107V15.109H13.736V13.166L15.697,15.109H17.748L15.257,12.617L17.32,10.555V13.396C17.32,14.339 17.887,15.209 19.316,15.209C19.994,15.209 20.617,14.825 20.919,14.477L21.652,15.109H22V10.328H20.37V13.424C20.187,13.744 19.931,13.945 19.536,13.945C19.135,13.945 18.951,13.708 18.951,12.947V10.328L15.614,10.328Z" id="path_2"/></svg>
